X: 17695
T: Holmes' Fancy
R: polka
M: 2/4
K: Gmajor
GBdB ecdB|GBdB cAce|GBdB ecdB|1 cedc BGGD:|2 cedc BGGg||
|:fdec dBGg|fdec d2 (3efg|GgAg Bgcg|1 dedB G2Gg:|2 dedB G2GD||

